X:1
T:Title
%%score { 1 | 2 }
L:1/8
Q:1/4=90
M:4/4
K:Ab
V:1 treble nm="Grand Piano"
V:2 bass 
V:1
 [CE]<[Ec] [Ec]>[DB] [DB] [CA]3 | [FA]>[=EG] [FA]>[DF] [C_E]4 | [CE][CE] [EA]>B c c3 | ec A>A B4 | %4
w: S.~W.~Tucker * * * * *||||
 [CE]<[Ec] [Ec]>[DB] [DB] [CA]3 | [FA]>[=EG] [FA]>[DF] [C_E]4 | [CE]>[CE] [EA]>B c c3 | %7
w: |||
 B>A c>B [CA]4 | [Ec]<[Ec] [FA]>[DF] [DF] [CE]3 | [Ec]>B A>A B4 | [CE]<[CE] [EA]>B c c3 | %11
w: ||||
[M:17/16] BAc3/2B[CA]/-[CA]/-[CA]/-[CA]/-[CA]-<[CA] |] %12
w: |
V:2
 [A,,A,]<[A,,A,] [E,A,]>[E,G,] [A,,A,] [A,,A,]3 | [D,A,]>[D,A,] [D,A,]>[D,A,] [A,,A,]4 | %2
 [A,,A,][A,,A,] [C,A,]>[E,G,E] [A,E] [A,E]3 | [A,CE][A,E] [F,A,C]>[F,A,C] [E,G,E]4 | %4
 [A,,A,]<[A,,A,] [E,A,]>[E,G,] [A,,A,] [A,,A,]3 | [D,A,]>[D,A,] [D,A,]>[D,A,] [A,,A,]4 | %6
 [A,,A,]>[A,,A,] [C,A,]>[E,G,E] [A,E] [A,E]3 | [E,G,D]>[F,A,C] [E,A,E]>[E,G,D] [A,,A,]4 | %8
 [A,,A,]<[A,,A,] [D,A,]>[D,A,] [A,,A,] [A,,A,]3 | [A,,A,]>[E,G,D] [F,A,C]>[F,A,C] [E,G,E]4 | %10
 [A,,A,]<[A,,A,] [C,A,]>[E,G,E] [A,E] [A,E]3 | %11
[M:17/16] [E,G,D][F,A,C][E,A,E]3/2[E,G,D][A,,A,]/-[A,,A,]/-[A,,A,]/-[A,,A,]/-[A,,A,]-<[A,,A,] |] %12

